build/svg/cmd/sc_intersect.svg

<?xml version="1.0" encoding="UTF-8" standalone="no"?>
<svg
   xmlns:dc="http://purl.org/dc/elements/1.1/"
   xmlns:cc="http://creativecommons.org/ns#"
   xmlns:rdf="http://www.w3.org/1999/02/22-rdf-syntax-ns#"
   xmlns:svg="http://www.w3.org/2000/svg"
   xmlns="http://www.w3.org/2000/svg"
   xmlns:sodipodi="http://sodipodi.sourceforge.net/DTD/sodipodi-0.dtd"
   xmlns:inkscape="http://www.inkscape.org/namespaces/inkscape"
   viewBox="0 0 16 16"
   version="1.1"
   id="svg6"
   sodipodi:docname="sc_intersect.svg"
   inkscape:export-filename="/home/jupiter007/Libreoffice yaru theme fullcolor/build/cmd/sc_intersect.png"
   inkscape:export-xdpi="96"
   inkscape:export-ydpi="96"
   inkscape:version="0.92.5 (2060ec1f9f, 2020-04-08)">
  <metadata
     id="metadata12">
    <rdf:RDF>
      <cc:Work
         rdf:about="">
        <dc:format>image/svg+xml</dc:format>
        <dc:type
           rdf:resource="http://purl.org/dc/dcmitype/StillImage" />
      </cc:Work>
    </rdf:RDF>
  </metadata>
  <defs
     id="defs10" />
  <sodipodi:namedview
     pagecolor="#ffffff"
     bordercolor="#666666"
     borderopacity="1"
     objecttolerance="10"
     gridtolerance="10"
     guidetolerance="10"
     inkscape:pageopacity="0"
     inkscape:pageshadow="2"
     inkscape:window-width="1920"
     inkscape:window-height="1011"
     id="namedview8"
     showgrid="false"
     inkscape:zoom="14.75"
     inkscape:cx="0.44067797"
     inkscape:cy="8"
     inkscape:window-x="0"
     inkscape:window-y="32"
     inkscape:window-maximized="1"
     inkscape:current-layer="svg6" />
  <path
     inkscape:connector-curvature="0"
     style="opacity:1;fill:#fee581;fill-opacity:1;stroke:none;stroke-width:2;stroke-linejoin:round;stroke-miterlimit:4;stroke-dasharray:none;stroke-opacity:1"
     d="m 9.4999999,1.9999999 c 0.3066169,0 0.6051391,0.031412 0.8945311,0.089844 A 4.5,4.5 0 0 0 9.4999999,1.9999999 Z m 0,0 a 4.5,4.5 0 0 0 -0.652344,0.052734 c 0.213972,-0.031617 0.431446,-0.052425 0.652344,-0.052734 z m -0.720703,0.060547 A 4.5,4.5 0 0 0 8.1777349,2.203125 c 0.195911,-0.06058 0.396559,-0.1090784 0.601562,-0.1425781 z m 1.6464841,0.037109 c 0.273675,0.057319 0.538093,0.1415177 0.791016,0.2460938 A 4.5,4.5 0 0 0 10.425781,2.0976559 Z M 8.0546878,2.2441405 A 4.5,4.5 0 0 0 7.4902343,2.4765624 C 7.6719044,2.3854508 7.8610586,2.310221 8.0546878,2.2441405 Z M 7.4902343,2.4765624 A 4.5,4.5 0 0 0 6.9140624,2.8222655 C 7.097106,2.6932322 7.289555,2.5772075 7.4902343,2.4765624 Z M 11.283203,2.3710937 c 0.246767,0.1067344 0.481604,0.2335617 0.703125,0.3808593 A 4.5,4.5 0 0 0 11.283203,2.3710937 Z m 0.742188,0.4042968 c 0.223578,0.1519538 0.430737,0.3269333 0.623047,0.515625 A 4.5,4.5 0 0 0 12.025391,2.7753905 Z M 6.8984374,2.8359374 A 4.5,4.5 0 0 0 6.4414061,3.2148437 C 6.5863344,3.0800972 6.7373972,2.9505707 6.8984374,2.8359374 Z M 6.4414061,3.2148437 c -0.037165,0.034554 -0.073363,0.069637 -0.109375,0.1054687 A 4.5,4.5 0 0 1 6.4414061,3.2148437 Z M 6.3320311,3.3203124 A 4.5,4.5 0 0 0 5.9355468,3.7636718 C 6.057062,3.6051149 6.1915289,3.4601118 6.3320311,3.3203124 Z m 6.3613279,0.011719 c 0.18359,0.1850542 0.348631,0.388971 0.498047,0.6035157 A 4.5,4.5 0 0 0 12.693359,3.3320314 Z M 5.9179687,3.7851561 A 4.5,4.5 0 0 0 5.5859374,4.3027343 C 5.687011,4.122617 5.794948,3.947758 5.9179687,3.7851561 Z M 5.5859374,4.3027343 c -0.022573,0.040226 -0.045009,0.080045 -0.066406,0.1210937 A 4.5,4.5 0 0 1 5.5859374,4.3027343 Z M 5.5195311,4.423828 A 4.5,4.5 0 0 0 5.2636718,4.9999999 C 5.3345568,4.7995062 5.4231754,4.6086734 5.5195311,4.423828 Z M 13.25,4.0156249 c 0.136872,0.2061049 0.251599,0.4262271 0.353516,0.6542969 A 4.5,4.5 0 0 0 13.25,4.0156249 Z m 0.412109,0.7851562 c 0.09462,0.2315194 0.169344,0.4737339 0.22461,0.7226563 a 4.5,4.5 0 0 0 -0.22461,-0.7226563 z m 0.251953,0.8417969 c 0.05379,0.2781769 0.08594,0.5635313 0.08594,0.8574219 A 4.5,4.5 0 0 0 13.914062,5.642578 Z m 0.08594,0.8574219 c -3.02e-4,0.2149312 -0.02082,0.4263579 -0.05078,0.6347656 a 4.5,4.5 0 0 0 0.05078,-0.6347656 z m -8.9648439,-0.5 a 4.5,4.5 0 0 0 -0.035156,0.5 A 4.5,4.5 0 0 0 9.5000018,11 4.5,4.5 0 0 0 10.000002,10.96875 V 5.9999999 Z m 8.8964849,1.2558594 c -0.03561,0.2073518 -0.08316,0.4115249 -0.146485,0.609375 a 4.5,4.5 0 0 0 0.146485,-0.609375 z m -0.16211,0.6542968 c -0.06375,0.1920926 -0.140187,0.3780347 -0.228515,0.5585938 A 4.5,4.5 0 0 0 13.769531,7.9101561 Z M 13.509766,8.533203 c -0.08847,0.1737732 -0.193015,0.3393607 -0.302735,0.5 a 4.5,4.5 0 0 0 0.302735,-0.5 z m -0.302735,0.5 a 4.5,4.5 0 0 1 -0.08008,0.1152344 c 0.02765,-0.037889 0.05362,-0.0765 0.08008,-0.1152344 z m -0.08008,0.1152344 c -0.115543,0.1583221 -0.237366,0.3110167 -0.373047,0.453125 a 4.5,4.5 0 0 0 0.373047,-0.453125 z M 12.72656,9.6289061 c -0.15517,0.1597452 -0.321455,0.3093524 -0.5,0.4453129 a 4.5,4.5 0 0 0 0.5,-0.4453129 z m -0.5,0.4453129 c -0.166607,0.12687 -0.346014,0.23822 -0.53125,0.341797 a 4.5,4.5 0 0 0 0.53125,-0.341797 z m -0.53125,0.341797 a 4.5,4.5 0 0 1 -0.111328,0.06055 c 0.0376,-0.01965 0.07442,-0.03991 0.111328,-0.06055 z m -0.111328,0.06055 C 11.396629,10.574482 11.203337,10.664438 11,10.736328 a 4.5,4.5 0 0 0 0.583984,-0.259766 z"
     id="path817" />
  <path
     inkscape:connector-curvature="0"
     style="opacity:1;fill:#6d6d6d;fill-opacity:1;stroke:none;stroke-width:2;stroke-linejoin:round;stroke-miterlimit:4;stroke-dasharray:none;stroke-opacity:1"
     d="m 2.0000001,5.0000001 c -0.554,0 -1,0.446 -1,1 V 14 c 0,0.554 0.446,1 1,1 H 9.9999999 C 10.554,15 11,14.554 11,14 V 6.0000001 c 0,-0.554 -0.446,-1 -1.0000001,-1 z m 0,1 H 9.9999999 V 14 H 2.0000001 Z"
     id="rect900" />
  <path
     inkscape:connector-curvature="0"
     style="opacity:1;fill:#6d6d6d;fill-opacity:1;stroke:none;stroke-width:2;stroke-linejoin:round;stroke-miterlimit:4;stroke-dasharray:none;stroke-opacity:1"
     d="M 9.4999999,1 A 5.5,5.5 0 0 0 4,6.5000001 5.5,5.5 0 0 0 9.4999999,12 5.5,5.5 0 0 0 15,6.5000001 5.5,5.5 0 0 0 9.4999999,1 Z m 0,1.0000001 A 4.5,4.5 0 0 1 14,6.5000001 4.5,4.5 0 0 1 9.4999999,11 4.5,4.5 0 0 1 5,6.5000001 a 4.5,4.5 0 0 1 4.4999999,-4.5 z"
     id="path905" />
</svg>

<svg xmlns="http://www.w3.org/2000/svg" viewBox="0 0 16 16"><path d="M9.5 2c.307 0 .605.031.895.09A4.5 4.5 0 009.5 2zm0 0a4.5 4.5 0 00-.652.053A4.5 4.5 0 019.5 2zm-.72.06a4.5 4.5 0 00-.602.143c.196-.06.396-.109.601-.142zm1.646.038c.273.057.538.141.79.246a4.5 4.5 0 00-.79-.246zm-2.371.146a4.5 4.5 0 00-.565.233 4.49 4.49 0 01.565-.233zm-.565.233a4.5 4.5 0 00-.576.345 4.51 4.51 0 01.576-.345zm3.793-.106c.247.107.482.234.703.381a4.5 4.5 0 00-.703-.38zm.742.404c.224.152.431.327.623.516a4.5 4.5 0 00-.623-.516zm-5.127.06a4.5 4.5 0 00-.457.38c.145-.135.296-.264.457-.38zm-.457.38c-.037.034-.073.07-.109.105a4.5 4.5 0 01.11-.105zm-.109.105a4.5 4.5 0 00-.396.444c.121-.159.256-.304.396-.444zm6.361.012c.184.185.349.389.498.604a4.5 4.5 0 00-.498-.604zm-6.775.453a4.5 4.5 0 00-.332.518c.101-.18.209-.355.332-.518zm-.332.518l-.066.12a4.5 4.5 0 01.066-.12zm-.066.12A4.5 4.5 0 005.264 5c.07-.2.16-.391.256-.576zm7.73-.407c.137.206.252.426.354.654a4.5 4.5 0 00-.354-.654zm.412.785c.095.231.17.474.225.722a4.5 4.5 0 00-.225-.722zm.252.842c.054.278.086.563.086.857a4.5 4.5 0 00-.086-.857zM14 6.5c0 .215-.02.426-.05.635A4.5 4.5 0 0014 6.5zM5.035 6A4.5 4.5 0 005 6.5 4.5 4.5 0 009.5 11a4.5 4.5 0 00.5-.031V6zm8.897 1.256a4.494 4.494 0 01-.147.61 4.5 4.5 0 00.147-.61zm-.162.654c-.064.192-.14.378-.229.559a4.5 4.5 0 00.229-.559zm-.26.623c-.089.174-.193.34-.303.5a4.5 4.5 0 00.303-.5zm-.303.5a4.5 4.5 0 01-.08.115c.028-.037.054-.076.08-.115zm-.08.115a4.447 4.447 0 01-.373.454 4.5 4.5 0 00.373-.454zm-.4.48c-.156.16-.322.31-.5.446a4.5 4.5 0 00.5-.445zm-.5.446a4.489 4.489 0 01-.532.342 4.5 4.5 0 00.532-.342zm-.532.342a4.5 4.5 0 01-.111.06l.111-.06zm-.111.06c-.187.098-.38.188-.584.26a4.5 4.5 0 00.584-.26z" fill="#fee581"/><path d="M2 5c-.554 0-1 .446-1 1v8c0 .554.446 1 1 1h8c.554 0 1-.446 1-1V6c0-.554-.446-1-1-1zm0 1h8v8H2z" fill="#6d6d6d"/><path d="M9.5 1A5.5 5.5 0 004 6.5 5.5 5.5 0 009.5 12 5.5 5.5 0 0015 6.5 5.5 5.5 0 009.5 1zm0 1A4.5 4.5 0 0114 6.5 4.5 4.5 0 019.5 11 4.5 4.5 0 015 6.5 4.5 4.5 0 019.5 2z" fill="#6d6d6d"/></svg>
